src/apps/scalable/GDevelop.svg

<?xml version="1.0" encoding="UTF-8" standalone="no"?>
<svg
   width="64"
   height="64"
   version="1.1"
   viewBox="0 0 64 64"
   id="svg6"
   sodipodi:docname="GDevelop.svg"
   inkscape:version="1.2.1 (9c6d41e410, 2022-07-14, custom)"
   xmlns:inkscape="http://www.inkscape.org/namespaces/inkscape"
   xmlns:sodipodi="http://sodipodi.sourceforge.net/DTD/sodipodi-0.dtd"
   xmlns:xlink="http://www.w3.org/1999/xlink"
   xmlns="http://www.w3.org/2000/svg"
   xmlns:svg="http://www.w3.org/2000/svg">
  <defs
     id="defs10">
    <linearGradient
       inkscape:collect="always"
       id="linearGradient1279">
      <stop
         style="stop-color:#21d0ff;stop-opacity:1"
         offset="0"
         id="stop1275" />
      <stop
         style="stop-color:#088aff;stop-opacity:1"
         offset="1"
         id="stop1277" />
    </linearGradient>
    <linearGradient
       id="linearGradient21603"
       x1="132.03999"
       x2="182.59"
       y1="31.174999"
       y2="31.174999"
       gradientUnits="userSpaceOnUse"
       xlink:href="#linearGradient10697" />
    <linearGradient
       id="linearGradient10697">
      <stop
         stop-color="#0778ff"
         offset="0"
         id="stop239" />
      <stop
         stop-color="#09a3ff"
         offset="1"
         id="stop241" />
    </linearGradient>
    <linearGradient
       id="linearGradient21605"
       x1="132.03999"
       x2="187.28"
       y1="31.174999"
       y2="31.174999"
       gradientUnits="userSpaceOnUse"
       xlink:href="#linearGradient10697" />
    <linearGradient
       id="linearGradient897"
       x1="159.59"
       x2="183.27"
       y1="30.030001"
       y2="28.386999"
       gradientUnits="userSpaceOnUse"
       xlink:href="#linearGradient21607" />
    <linearGradient
       id="linearGradient21607"
       x1="159.59"
       x2="183.27"
       y1="30.030001"
       y2="28.386999"
       gradientUnits="userSpaceOnUse">
      <stop
         stop-color="#21d0ff"
         offset="0"
         id="stop246" />
      <stop
         stop-color="#099eff"
         offset="1"
         id="stop248" />
    </linearGradient>
    <linearGradient
       inkscape:collect="always"
       xlink:href="#linearGradient1279"
       id="linearGradient1281"
       x1="32"
       y1="8.3085938"
       x2="32"
       y2="55.515312"
       gradientUnits="userSpaceOnUse" />
  </defs>
  <sodipodi:namedview
     id="namedview8"
     pagecolor="#ffffff"
     bordercolor="#999999"
     borderopacity="1"
     inkscape:showpageshadow="0"
     inkscape:pageopacity="0"
     inkscape:pagecheckerboard="0"
     inkscape:deskcolor="#d1d1d1"
     showgrid="false"
     inkscape:zoom="6.640625"
     inkscape:cx="40.809412"
     inkscape:cy="40.432941"
     inkscape:window-width="1920"
     inkscape:window-height="1005"
     inkscape:window-x="0"
     inkscape:window-y="0"
     inkscape:window-maximized="1"
     inkscape:current-layer="svg6" />
  <path
     id="path2"
     d="M 36.306641 8.3085938 C 21.230656 8.3085938 16.923828 15.397473 16.923828 25.539062 C 16.923828 27.219061 17.056526 28.80473 17.322266 30.298828 C 18.660764 37.824321 23.728453 42.769531 36.306641 42.769531 C 40.614036 42.769531 44.273438 41.691406 44.273438 41.691406 L 47.767578 30.298828 L 49.228516 25.539062 C 50.240815 22.241666 50.765468 21.230469 47.076172 21.230469 L 33.076172 21.230469 C 31.286374 21.230469 29.845703 22.673092 29.845703 24.462891 C 29.845703 26.252689 31.286374 27.693359 33.076172 27.693359 L 40.025391 27.693359 L 39.316406 30.298828 L 37.708984 36.197266 C 37.708984 36.197266 37.292863 36.308594 36.308594 36.308594 C 29.043301 36.308594 25.409921 34.347524 24.044922 30.298828 C 23.589202 28.946629 23.386719 27.362261 23.386719 25.539062 C 23.386719 18.25727 26.616703 14.769531 36.308594 14.769531 L 60 14.769531 L 57.845703 8.3085938 L 36.308594 8.3085938 L 36.306641 8.3085938 z M 4 21.230469 L 4 27.693359 C 4 28.572878 4.0396981 29.440029 4.109375 30.298828 C 5.2646738 44.539814 15.993661 55.691406 36.306641 55.691406 C 49.228628 55.691406 55.691051 51.383669 59.998047 44.921875 L 51.167969 44.921875 C 47.937272 47.075573 44.921332 49.230469 36.306641 49.230469 C 22.349655 49.230469 12.09153 40.963917 10.644531 30.298828 C 10.528531 29.443809 10.460937 28.576258 10.460938 27.693359 L 10.460938 21.232422 L 4 21.230469 z "
     style="fill:url(#linearGradient1281);fill-opacity:1" />
</svg>

<?xml version="1.0" encoding="UTF-8"?>
<svg width="64" height="64" version="1.1" viewBox="0 0 64 64" xmlns="http://www.w3.org/2000/svg">
 <path d="m4.1094 30.299c1.1553 14.241 11.884 25.393 32.197 25.393 12.922 0 19.384-4.3082 23.691-10.77h-8.8301c-3.2307 2.1537-6.2463 4.3086-14.861 4.3086-13.957 0-24.215-8.2669-25.662-18.932h-6.5352zm13.213 0c1.3385 7.5255 6.4058 12.471 18.984 12.471 4.3074 0 7.9668-1.0781 7.9668-1.0781l3.4941-11.393h-8.4512l-1.6074 5.8984s-0.41613 0.11133-1.4004 0.11133c-7.2653 0-10.899-1.9611-12.264-6.0098h-6.7227z" fill="#377fc9" stroke-width="1.8347"/>
 <path d="m36.307 8.3086c-15.076 0-19.383 7.0884-19.383 17.23 0 1.68 0.1327 3.2657 0.39844 4.7598h6.7227c-0.45572-1.3522-0.6582-2.9366-0.6582-4.7598 0-7.2818 3.2301-10.77 12.922-10.77h23.691l-2.1543-6.4609h-21.537-0.001953zm-32.307 12.922v6.4629c0 0.87952 0.039703 1.7467 0.10938 2.6055h6.5352c-0.116-0.85502-0.18359-1.7226-0.18359-2.6055v-6.4609l-6.4609-0.001953zm29.076 0c-1.7898 0-3.2305 1.4426-3.2305 3.2324 0 1.7898 1.4407 3.2305 3.2305 3.2305h6.9492l-0.70898 2.6055h8.4512l1.4609-4.7598c1.0123-3.2974 1.537-4.3086-2.1523-4.3086h-14z" fill="#5397d8" stroke-width="1.8347"/>
</svg>
